X:1
T:O Lago dos Cisnes
T:Tchaikoviski
L:1/8
M:4/4
K:C
V:1 treble nm="Violin" snm="Vln."
V:1
 e4 ABcd | e3 c e3 c | e3 A cAFc | A4- AdcB | e4 ABcd | e3 c e3 c | e3 A cAFc | A6 A2 | %8
 B2 c2 d2 ef | g3 f e2 fg | a3 g f2 ga | b3 a ecBA | B2 c2 d2 ef | g3 f e2 fg | a3 g f2 ga | %15
 _b3 f d2 f=b | b3 ^f b3 e | e4 ABcd | e3 c e3 c | e3 A c^GFc | A4- ABcd | e4 ABcd | e3 c e3 c | %23
 e3 A c^GFc | A2 z2 z4 |] %25

